!!!OTL: OH WIE SANFT RUH ICH HIER
!!!ARE: Europa, Mitteleuropa, Deutschland, Kuestrin
!!!SCT: B0614
!!!YEM: Copyright 1995, estate of Helmut Schaffrath.
**kern
*ICvox
*Ivox
*M3/8
*k[f#]
*G:
=1
{8dd
8cc
8b
=2
8a
8f#
8g}
=3
{8e
8f#
8g
=4
4.a}
=5
{8d
8dd
8dd
=6
8dd
16cc
16b
8cc}
=7
{8d
8cc
8cc
=8
8cc
16b
16a
8b}
=9
{16a
16b
16cc
16a
16b
16g
=10
4.a}
=11
{16a
16g
8f#
8g
=12
8a
8f#
8g}
=13
{8a
8a
8b
=14
4.cc}
=15
{16ee
16dd
16cc
16b
8a
=16
16cc
16cc
16b
16a
8g}
=17
{16a
16cc
8b
8a
=18
4g
8r}
==
!!!AGN: Staende -, Hirten - Lied
!!!ONB: ESAC (Essen Associative Code) Database: BOEHME
!!!AMT: simple triple
!!!AIN: vox
!!!EED: Helmut Schaffrath
!!!EEV: 1.0
*-
